src/assets/blessing.svg

<?xml version="1.0" encoding="UTF-8" standalone="no"?>
<svg
   xmlns:dc="http://purl.org/dc/elements/1.1/"
   xmlns:cc="http://creativecommons.org/ns#"
   xmlns:rdf="http://www.w3.org/1999/02/22-rdf-syntax-ns#"
   xmlns:svg="http://www.w3.org/2000/svg"
   xmlns="http://www.w3.org/2000/svg"
   width="1000"
   height="1000"
   viewBox="0 0 999.99999 999.99999"
   id="svg7631"
   version="1.1">
  <defs
     id="defs7633">
    <pattern
       id="EMFhbasepattern"
       patternUnits="userSpaceOnUse"
       width="6"
       height="6"
       x="0"
       y="0" />
    <pattern
       id="EMFhbasepattern-8"
       patternUnits="userSpaceOnUse"
       width="6"
       height="6"
       x="0"
       y="0" />
    <pattern
       id="EMFhbasepattern-3"
       patternUnits="userSpaceOnUse"
       width="6"
       height="6"
       x="0"
       y="0" />
  </defs>
  <metadata
     id="metadata7636">
    <rdf:RDF>
      <cc:Work
         rdf:about="">
        <dc:format>image/svg+xml</dc:format>
        <dc:type
           rdf:resource="http://purl.org/dc/dcmitype/StillImage" />
        <dc:title></dc:title>
      </cc:Work>
    </rdf:RDF>
  </metadata>
  <path
     style="fill:#000000;fill-opacity:1;fill-rule:nonzero;stroke:none"
     d="m 507.77245,39.061544 c -19.46573,0.07621 -35.88993,3.649788 -49.65281,10.036935 -42.42816,19.997828 -67.82481,60.069531 -67.82481,120.443141 2.28114,16.19609 10.11301,50.10903 10.11301,50.10903 23.11556,4.25812 27.2216,60.06895 51.85689,73.07144 l -2.12907,5.32266 -24.93942,12.31816 c -61.81885,22.27909 -91.09315,20.98646 -136.10723,46.61123 -25.62458,14.67534 -47.3713,31.25059 -44.78604,60.75332 l 19.00939,218.07579 c 2.4331,27.52475 28.13384,46.61027 55.12711,45.39365 l 0,180.74121 c 0,31.4797 13.53466,59.76582 35.20505,79.23051 -0.22812,-16.87943 6.69134,-34.06398 14.67532,-51.0965 10.7974,-22.65928 24.25613,-45.77483 30.33914,-67.59772 7.45171,-26.30913 8.97249,-58.24407 11.78587,-84.32506 1.44474,-13.00248 3.04153,-24.56027 6.46324,-33.91294 1.74886,-4.71434 3.95399,-8.89644 7.29965,-12.39417 3.4217,-3.42171 8.28814,-5.85494 13.45871,-6.15906 l 0.83641,16.19607 c -1.21659,0.0762 -1.67281,0.22812 -2.66131,1.29264 -1.06453,1.14057 -2.4332,3.34566 -3.72588,6.69134 -2.4332,6.6153 -4.18207,17.41268 -5.55074,30.03498 -2.66135,25.24459 -4.10606,58.01593 -12.24214,86.98638 -6.99548,24.7884 -20.98647,48.43619 -31.32761,70.18306 -10.26512,21.74682 -16.27213,40.75531 -11.17757,55.88684 l -1.52079,0.53228 c 4.71438,2.88942 9.73289,5.32267 14.90345,7.4517 3.87794,-47.90285 31.63178,-85.69374 78.92638,-93.0694 5.24662,-18.55327 14.75135,-11.70986 9.2006,-18.55327 -7.83191,-9.73285 -15.58779,-20.98647 -26.76436,-33.07651 -7.67981,-8.36416 -13.99099,-20.15007 -12.09003,-31.02247 0,-1.82491 14.21911,-9.35267 14.21911,-11.17758 0.75935,-36.65028 -3.57381,-59.23355 18.78034,-72.08397 5.32267,2.35719 11.02551,3.49776 16.88042,3.5738 8.13609,0 16.12007,-2.43323 23.0395,-6.84341 7.45175,5.85491 16.5763,9.04851 26.08103,9.04851 7.07152,0 14.06701,-1.82492 20.22608,-5.24663 22.20309,12.77438 20.98648,37.8669 21.82291,73.90889 0.0762,1.5968 12.31712,6.08302 12.31712,7.75587 0,10.64429 -13.15355,29.12152 -13.15355,29.12152 -13.0025,13.15455 -13.30662,23.34366 -22.96345,34.14102 -4.03,4.56228 8.21209,17.86893 4.71434,21.74687 40.45119,5.32267 66.45617,38.32312 78.69826,76.34108 0.83641,-0.22812 1.5968,-0.45623 2.43321,-0.76039 l 0.0761,3.72586 c 2.66132,-1.8249 5.17057,-3.87793 7.67983,-6.007 4.86643,-15.43469 -0.15196,-31.9349 -9.12456,-51.32458 -9.0485,-19.69383 -21.89893,-41.4407 -28.89441,-66.15301 -8.13604,-28.89445 -9.58078,-61.7418 -12.2421,-86.98642 -1.36867,-12.62227 -3.11757,-23.34362 -5.55077,-30.03498 -1.29263,-3.34565 -2.66132,-5.55077 -3.72484,-6.6153 -0.98851,-1.06451 -1.44473,-1.21661 -2.66135,-1.29263 l 0.83645,-16.19608 c 5.16956,0.22811 10.03596,2.66131 13.45767,6.15908 3.34569,3.4217 5.55078,7.67981 7.29965,12.31814 3.4217,9.35267 5.01849,20.91043 6.46323,33.91291 2.81342,26.08103 4.33417,58.09198 11.78587,84.40112 6.15907,21.89893 18.40121,42.96141 27.98198,63.71978 5.77887,12.6223 10.79737,25.47272 12.09005,38.47522 12.24209,-17.33666 19.31362,-38.47522 19.31362,-61.36263 l 0,-180.7412 c 27.06949,1.29267 52.84536,-17.79288 55.12649,-45.3176 l 18.2491,-222.10581 c 2.4332,-29.42669 -20.75836,-49.04348 -44.78533,-60.67728 -41.82087,-20.22608 -102.27104,-41.0605 -135.27049,-42.65729 l -19.92196,-12.69833 0.68435,-2.73736 c 17.79287,-7.22359 10.56928,-24.71235 47.44667,-67.67276 8.2121,-9.58077 15.89191,-50.41315 16.80438,-66.83735 -5.70296,-81.740094 -39.46277,-119.910831 -87.8229,-120.519149 -8.74438,0.45622 -13.83893,1.292666 -16.27213,2.357181 -2.73737,-0.912453 -5.6268,-1.824906 -8.82039,-2.813378 z m -58.39615,153.823736 40.37515,0.53228 0.53224,6.61529 c -8.97245,10.03702 -48.96741,10.64531 -40.90739,-7.14757 z m 72.69127,0.0762 43.34163,0.0761 c 7.60381,15.13157 -36.57427,19.23762 -44.17804,6.76737 l 0.83641,-6.84341 z m -13.45871,60.44915 c 8.97248,-0.0762 17.64081,1.74887 20.53024,5.55075 10.87341,21.4427 -48.13202,21.82291 -42.20106,-0.22812 3.64982,-3.49771 12.77437,-5.32263 21.67082,-5.32263 z m 181.80571,204.54103 6.08302,6.08306 -20.30213,138.38804 -66.7613,23.0395 -3.3457,-2.28113 c -14.29511,-9.58079 -33.07545,-15.43573 -49.57571,-16.04403 -16.57625,-0.68434 -30.18707,3.95398 -36.4982,12.16609 l -7.75588,10.11302 -5.85491,-11.32965 c -1.44473,-2.81341 -5.0185,-5.0185 -11.70985,-6.08301 -6.69136,-1.14057 -15.58779,-0.83645 -24.25612,0.30427 -17.33665,2.28113 -33.53173,7.37569 -33.53173,7.37569 l -2.50925,0.83641 -78.01493,-25.4727 -31.40327,-132.07691 15.73979,-3.72584 29.35031,123.18043 64.55621,21.06252 c 3.42171,-1.06451 16.87942,-5.09455 33.68383,-7.29964 9.6568,-1.21662 19.76986,-1.74886 29.04647,-0.22811 5.93097,0.98851 11.70986,3.19359 16.50025,6.84341 11.17758,-9.2006 26.99348,-12.54626 43.26558,-11.86192 18.4012,0.68435 38.01795,6.46324 54.44215,16.57626 l 50.03298,-17.18454 17.64081,-120.59517 -0.22811,-0.30427 11.40569,-11.48174 z M 553.77539,771.60618 c 0,0 0,0 0,0 0,0 0,0 0,0 l 0,0 z m 0,0 c -0.0762,0.0762 -0.30428,0.15195 -0.53227,0.22812 -0.53225,0.0762 -1.29265,0.15195 -2.2051,0.30426 -1.8249,0.15197 -4.41021,0.38018 -7.22359,0.53226 -5.70285,0.30426 -12.62231,0.38021 -18.32515,0 l -0.53228,7.98398 c 6.15907,0.45622 13.30664,0.30427 19.31366,0 2.96548,-0.15197 5.55075,-0.30428 7.67981,-0.53225 1.06453,-0.15195 1.97698,-0.30427 2.73738,-0.38021 0.76039,-0.15196 1.21662,-0.15196 2.4332,-0.76036 l -3.72583,-7.14757 c 0.38017,-0.15196 0.45622,-0.22812 0.38017,-0.22812 z m -88.81234,0.45623 0,0 c -0.0762,0 0,0 0.38022,0.22812 l -3.72587,7.14757 c 1.21662,0.6083 1.67284,0.53224 2.4332,0.68434 0.76039,0.15197 1.67284,0.30428 2.73737,0.38018 2.12908,0.22812 4.71438,0.45623 7.67985,0.60829 5.93096,0.30428 13.15456,0.38022 19.31364,0 l -0.53228,-8.05999 c -5.70285,0.38018 -12.62228,0.30427 -18.32513,0.0762 -2.81341,-0.15195 -5.39872,-0.38018 -7.22363,-0.60829 -0.91245,-0.0761 -1.6728,-0.22811 -2.20508,-0.30427 -0.22812,0 -0.45623,-0.0762 -0.53229,-0.15195 z m 57.78886,47.67479 c -2.4332,2.20508 -8.06003,2.88943 -11.10152,3.04149 -5.09457,0.38022 -7.22363,0.45622 -11.32969,-2.12904 l -6.23509,5.70285 c 6.15908,3.72583 11.55776,4.8664 18.09701,4.48622 5.85495,-0.53227 14.8274,-2.4332 17.56476,-7.29964 l -6.99547,-3.80188 z"
     id="path3363" />
</svg>

<?xml version="1.0" encoding="UTF-8" standalone="no"?>
<svg
   xmlns:dc="http://purl.org/dc/elements/1.1/"
   xmlns:cc="http://creativecommons.org/ns#"
   xmlns:rdf="http://www.w3.org/1999/02/22-rdf-syntax-ns#"
   xmlns:svg="http://www.w3.org/2000/svg"
   xmlns="http://www.w3.org/2000/svg"
   xmlns:sodipodi="http://sodipodi.sourceforge.net/DTD/sodipodi-0.dtd"
   xmlns:inkscape="http://www.inkscape.org/namespaces/inkscape"
   width="1000"
   height="1000"
   viewBox="0 0 999.99999 999.99999"
   id="svg7631"
   version="1.1"
   inkscape:version="0.91 r13725"
   sodipodi:docname="blessing.svg">
  <sodipodi:namedview
     pagecolor="#ffffff"
     bordercolor="#666666"
     borderopacity="1"
     objecttolerance="10"
     gridtolerance="10"
     guidetolerance="10"
     inkscape:pageopacity="0"
     inkscape:pageshadow="2"
     inkscape:window-width="1920"
     inkscape:window-height="1017"
     id="namedview9"
     showgrid="false"
     inkscape:zoom="0.236"
     inkscape:cx="-93.901758"
     inkscape:cy="754.83533"
     inkscape:window-x="3832"
     inkscape:window-y="-8"
     inkscape:window-maximized="1"
     inkscape:current-layer="svg7631" />
  <defs
     id="defs7633">
    <pattern
       id="EMFhbasepattern"
       patternUnits="userSpaceOnUse"
       width="6"
       height="6"
       x="0"
       y="0" />
    <pattern
       id="EMFhbasepattern-8"
       patternUnits="userSpaceOnUse"
       width="6"
       height="6"
       x="0"
       y="0" />
    <pattern
       id="EMFhbasepattern-3"
       patternUnits="userSpaceOnUse"
       width="6"
       height="6"
       x="0"
       y="0" />
  </defs>
  <metadata
     id="metadata7636">
    <rdf:RDF>
      <cc:Work
         rdf:about="">
        <dc:format>image/svg+xml</dc:format>
        <dc:type
           rdf:resource="http://purl.org/dc/dcmitype/StillImage" />
        <dc:title />
      </cc:Work>
    </rdf:RDF>
  </metadata>
  <path
     style="fill:#000000;fill-opacity:1;fill-rule:nonzero;stroke:none"
     d="M 489.24805 18.472656 C 462.15868 18.346416 442.60245 29.208934 422.28711 52.527344 C 403.05832 74.597714 399.66213 85.20138 400.04102 121.92383 C 400.53382 169.60028 408.78524 175.3926 419.68945 135.71094 C 427.10563 108.72181 429.98749 106.92703 452.44727 115.31055 C 481.47134 126.14423 511.61879 123.78798 530.65625 109.19727 C 556.91977 89.068808 569.64548 95.10522 585.94727 135.42383 C 596.81348 162.29916 601.95194 156.79035 601.92578 118.29688 C 601.88588 59.036067 593.32953 45.08226 547.93945 30.25 C 524.47041 22.58091 505.50136 18.548906 489.24805 18.472656 z M 561.62891 177.43164 C 561.5288 177.53175 561.22724 177.63235 560.92773 177.73242 C 560.22849 177.83253 559.22996 177.93272 558.03125 178.13281 C 555.63383 178.33246 552.23898 178.63029 548.54297 178.83008 C 541.05098 179.22979 531.96072 179.32957 524.46875 178.83008 L 523.76953 189.31836 C 531.86086 189.91771 541.251 189.71809 549.14258 189.31836 C 553.03841 189.11872 556.43541 188.92058 559.23242 188.62109 C 560.63092 188.42147 561.82721 188.22085 562.82617 188.12109 C 563.82511 187.92146 564.42519 187.92232 566.02344 187.12305 L 561.12891 177.73242 C 561.62835 177.53279 561.72881 177.43164 561.62891 177.43164 z M 444.95312 178.03125 C 444.85302 178.03125 444.95363 178.03234 445.45312 178.33203 L 440.55859 187.7207 C 442.1569 188.51984 442.75501 188.42127 443.75391 188.62109 C 444.75286 188.82073 445.95111 189.01943 447.34961 189.11914 C 450.14664 189.41883 453.54559 189.72015 457.44141 189.91992 C 465.23307 190.31966 474.72115 190.41942 482.8125 189.91992 L 482.11523 179.33008 C 474.62324 179.82954 465.53105 179.72927 458.03906 179.42969 C 454.34301 179.23007 450.94821 178.93248 448.55078 178.63281 C 447.35207 178.53281 446.35357 178.33247 445.6543 178.23242 C 445.35461 178.23242 445.05305 178.13076 444.95312 178.03125 z M 520.87305 240.66211 C 517.67649 243.55899 510.28279 244.4604 506.28711 244.66016 C 499.59423 245.15967 496.79659 245.2596 491.40234 241.86328 L 483.21289 249.35352 C 491.30424 254.24824 498.3975 255.74554 506.98828 255.24609 C 514.68009 254.54683 526.46636 252.05137 530.0625 245.6582 L 520.87305 240.66211 z M 386.05469 314.57617 C 385.56718 314.56657 385.07086 314.57132 384.56445 314.5918 C 377.19856 314.88961 367.7554 318.31384 353.95898 323.25195 C 330.2959 333.32557 305.29466 355.18612 293.42188 369.02344 C 268.15477 416.6276 251.59287 483.33797 259.42578 525.13867 L 263.3125 635.80273 C 265.7456 663.32748 291.44618 682.41389 318.43945 681.19727 L 318.43945 861.9375 C 318.43945 893.4172 331.97414 921.70328 353.64453 941.16797 C 353.41641 924.28854 360.33633 907.10479 368.32031 890.07227 C 379.11771 867.41299 392.57519 844.2975 398.6582 822.47461 C 406.10991 796.16548 407.63193 764.22943 410.44531 738.14844 C 411.89005 725.14596 413.48649 713.589 416.9082 704.23633 C 418.65706 699.52199 420.86137 695.33953 424.20703 691.8418 C 427.62873 688.42009 432.49545 685.98771 437.66602 685.68359 L 438.50195 701.87891 C 437.28536 701.95511 436.8303 702.10734 435.8418 703.17188 C 434.77727 704.31245 433.40791 706.5176 432.11523 709.86328 C 429.68203 716.47858 427.93312 727.27614 426.56445 739.89844 C 423.9031 765.14303 422.45835 797.91432 414.32227 826.88477 C 407.32679 851.67317 393.33723 875.32149 382.99609 897.06836 C 372.73097 918.81518 366.7238 937.82355 371.81836 952.95508 L 370.29688 953.48633 C 375.01126 956.37575 380.03061 958.80847 385.20117 960.9375 C 389.07911 913.03465 416.83235 875.2448 464.12695 867.86914 C 469.37357 849.31587 478.87888 856.15982 473.32812 849.31641 C 465.49622 839.58356 457.73907 828.33027 446.5625 816.24023 C 438.88269 807.87607 432.5717 796.0892 434.47266 785.2168 C 434.47266 783.39189 448.69141 775.86397 448.69141 774.03906 C 449.45076 737.38878 445.11851 714.8055 467.47266 701.95508 C 472.79533 704.31227 478.49861 705.45326 484.35352 705.5293 C 492.48961 705.5293 500.47315 703.09573 507.39258 698.68555 C 514.84433 704.54046 523.96793 707.73438 533.47266 707.73438 C 540.54418 707.73438 547.54015 705.90999 553.69922 702.48828 C 575.90231 715.26266 574.68505 740.35449 575.52148 776.39648 C 575.59768 777.99328 587.83984 782.47949 587.83984 784.15234 C 587.83984 794.79663 574.68555 813.27344 574.68555 813.27344 C 561.68305 826.42799 561.37949 836.6167 551.72266 847.41406 C 547.69266 851.97634 559.93525 865.28417 556.4375 869.16211 C 596.88869 874.48478 622.89268 907.48399 635.13477 945.50195 C 635.97118 945.27383 636.73195 945.04635 637.56836 944.74219 L 637.64453 948.46875 C 640.30585 946.64385 642.81496 944.59001 645.32422 942.46094 C 650.19065 927.02625 645.17182 910.5264 636.19922 891.13672 C 627.15072 871.44289 614.30017 849.69669 607.30469 824.98438 C 599.16865 796.08992 597.72382 763.24267 595.0625 737.99805 C 593.69383 725.37578 591.94492 714.65425 589.51172 707.96289 C 588.21909 704.61724 586.85063 702.41219 585.78711 701.34766 C 584.7986 700.28315 584.34357 700.13071 583.12695 700.05469 L 583.96289 683.85742 C 589.13245 684.08553 593.99821 686.51981 597.41992 690.01758 C 600.76561 693.43928 602.97183 697.69761 604.7207 702.33594 C 608.1424 711.68861 609.73885 723.24557 611.18359 736.24805 C 613.99701 762.32908 615.51705 794.34125 622.96875 820.65039 C 629.12782 842.54932 641.3704 863.61077 650.95117 884.36914 C 656.73004 896.99144 661.74834 909.84125 663.04102 922.84375 C 675.28311 905.50709 682.35547 884.36983 682.35547 861.48242 L 682.35547 680.74023 C 709.42496 682.0329 744.18957 670.43878 746.4707 642.91406 C 755.16194 599.19438 759.75129 566.04753 760.39453 541.25586 C 760.62559 541.21126 761.41602 541.06055 761.41602 541.06055 L 760.75195 483.19922 C 759.87171 483.19922 757.84364 465.11606 756.23633 443.01562 C 753.74721 408.64805 751.54204 400.50422 741.00391 386.72852 C 716.06399 354.12662 650.34039 316.35437 616.95508 315.43555 C 600.87073 314.99274 600.18926 315.5883 594.66602 334.88867 C 588.86272 355.17099 554.69775 434.59728 547.00391 445.69727 C 544.97874 448.61833 541.10317 452.97989 536.61328 456.82617 L 536.20117 410.20898 C 535.03928 394.99615 521.54385 383.21073 505.28516 383.21094 C 489.0387 383.22594 475.56071 395.00711 474.40039 410.20898 L 472.11328 459.00781 C 463.66324 454.73347 450.09905 427.85308 427.23633 375.20312 C 407.55404 329.8763 401.16735 314.87395 386.05469 314.57617 z M 474.38477 336.23438 C 475.54621 359.9665 489.04172 378.3517 505.30078 378.35156 C 521.54753 378.32706 535.02493 359.94853 536.18555 336.23438 L 474.38477 336.23438 z M 351.18164 523.04297 C 354.21953 523.25381 358.4124 534.92382 363.38477 554.37305 L 370.06836 582.42578 L 434.625 603.48828 C 438.04671 602.42377 451.50418 598.39259 468.30859 596.1875 C 477.96539 594.97088 488.07886 594.43823 497.35547 595.95898 C 503.28644 596.94749 509.06508 599.15291 513.85547 602.80273 C 525.03305 593.60213 540.84899 590.25707 557.12109 590.94141 C 575.52229 591.62576 595.1383 597.40456 611.5625 607.51758 L 661.5957 590.33203 L 668.07031 536.83008 C 673.62204 536.09816 677.68145 554.81183 683.29492 554.02734 L 676.19531 602.42188 L 609.43359 625.46289 L 606.08789 623.18164 C 591.79278 613.60085 573.01393 607.74502 556.51367 607.13672 C 539.93742 606.45238 526.3248 611.09062 520.01367 619.30273 L 512.25781 629.41602 L 506.4043 618.08594 C 504.95957 615.27253 501.38471 613.06842 494.69336 612.00391 C 488.002 610.86334 479.10583 611.16787 470.4375 612.30859 C 453.10085 614.58972 436.90625 619.68359 436.90625 619.68359 L 434.39648 620.51953 L 356.38281 595.04688 L 346.09375 551.77539 C 346.72003 531.59256 348.50115 522.85693 351.18164 523.04297 z M 553.77539 771.60547 C 553.69919 771.68167 553.47018 771.75781 553.24219 771.83398 C 552.70994 771.91018 551.94956 771.98636 551.03711 772.13867 C 549.21221 772.29064 546.62783 772.51784 543.81445 772.66992 C 538.1116 772.97418 531.19307 773.05013 525.49023 772.66992 L 524.95703 780.6543 C 531.1161 781.11052 538.26446 780.95857 544.27148 780.6543 C 547.23696 780.50233 549.82211 780.35102 551.95117 780.12305 C 553.0157 779.9711 553.9271 779.81813 554.6875 779.74219 C 555.44789 779.59023 555.90451 779.59082 557.12109 778.98242 L 553.39453 771.83398 C 553.7747 771.68202 553.85144 771.60547 553.77539 771.60547 z M 464.96289 772.0625 C 464.88669 772.0625 464.96353 772.0629 465.34375 772.29102 L 461.61719 779.4375 C 462.83381 780.0458 463.29042 779.97095 464.05078 780.12305 C 464.81117 780.27502 465.72258 780.42605 466.78711 780.50195 C 468.91619 780.73007 471.50328 780.95927 474.46875 781.11133 C 480.39971 781.41561 487.62217 781.49155 493.78125 781.11133 L 493.25 773.05078 C 487.54715 773.43096 480.62668 773.35499 474.92383 773.12695 C 472.11042 772.975 469.52608 772.74764 467.70117 772.51953 C 466.78872 772.44343 466.02837 772.291 465.49609 772.21484 C 465.26797 772.21484 465.03895 772.13824 464.96289 772.0625 z M 522.75195 819.73633 C 520.31875 821.94141 514.69188 822.62724 511.65039 822.7793 C 506.55582 823.15952 504.42637 823.23565 500.32031 820.65039 L 494.08594 826.35156 C 500.24502 830.07739 505.64434 831.21807 512.18359 830.83789 C 518.03854 830.30562 527.01069 828.4055 529.74805 823.53906 L 522.75195 819.73633 z "
     id="path3363" />
</svg>
